img/svg/maintenance-5.svg

<svg width="37" height="55" viewBox="0 0 37 55" fill="none" xmlns="http://www.w3.org/2000/svg">
<path d="M28.7926 24.4301H27.0476V6.10753C27.0476 2.73966 24.3071 0 20.9401 0H15.7051C12.3381 0 9.59754 2.73966 9.59754 6.10753V24.4301H7.85253C3.5223 24.4301 0 27.9533 0 32.2826V49.7327C0 50.6951 0.782636 51.4777 1.74501 51.4777V54.0952H8.72504V51.4777H27.9201V54.0952H34.9002V51.4777C35.8625 51.4777 36.6452 50.6951 36.6452 49.7327V32.2826C36.6452 27.9533 33.1229 24.4301 28.7926 24.4301ZM11.3425 6.10753C11.3425 3.70203 13.2996 1.74501 15.7051 1.74501H20.9401C23.3456 1.74501 25.3026 3.70203 25.3026 6.10753V38.3902C25.3026 38.8709 24.9117 39.2627 24.4301 39.2627H12.2151C11.7334 39.2627 11.3425 38.8709 11.3425 38.3902V6.10753ZM7.85253 26.1751H9.59754V38.3902C9.59754 38.6973 9.66036 38.9887 9.75808 39.2627H6.10753V41.0077H12.2151H24.4301H30.5376V39.2627H26.8871C26.9848 38.9887 27.0476 38.6973 27.0476 38.3902V26.1751H28.7926C32.1596 26.1751 34.9002 28.9148 34.9002 32.2826V46.2427H1.74501V32.2826C1.74501 28.9148 4.48554 26.1751 7.85253 26.1751ZM6.98003 52.3502H3.49002V51.4777H6.98003V52.3502ZM33.1551 52.3502H29.6651V51.4777H33.1551V52.3502ZM27.9201 49.7327H8.72504H1.74501V47.9877H34.9002V49.7327H27.9201Z" fill="white"/>
<path d="M24.4309 6.97998H12.2158V15.705H24.4309V6.97998ZM22.6859 13.96H13.9608V8.72499H22.6859V13.96Z" fill="white"/>
<path d="M21.8124 3.48975H20.0674V5.23475H21.8124V3.48975Z" fill="white"/>
<path d="M18.323 3.48975H14.833V5.23475H18.323V3.48975Z" fill="white"/>
<path d="M13.9608 19.1952H15.7058V20.0677H17.4508V17.4502H12.2158V20.0677H13.9608V19.1952Z" fill="white"/>
<path d="M22.6853 18.3227H20.9403V17.4502H19.1953V20.0677H24.4303V17.4502H22.6853V18.3227Z" fill="white"/>
<path d="M20.0681 35.7729H16.5781V37.518H20.0681V35.7729Z" fill="white"/>
<path d="M15.7058 21.8125H12.2158V23.5575H15.7058V21.8125Z" fill="white"/>
<path d="M20.0681 21.8125H16.5781V23.5575H20.0681V21.8125Z" fill="white"/>
<path d="M24.4304 21.8125H20.9404V23.5575H24.4304V21.8125Z" fill="white"/>
<path d="M15.7058 25.3027H12.2158V27.0477H15.7058V25.3027Z" fill="white"/>
<path d="M20.0681 25.3027H16.5781V27.0477H20.0681V25.3027Z" fill="white"/>
<path d="M24.4304 25.3027H20.9404V27.0477H24.4304V25.3027Z" fill="white"/>
<path d="M15.7058 28.793H12.2158V30.538H15.7058V28.793Z" fill="white"/>
<path d="M20.0681 28.793H16.5781V30.538H20.0681V28.793Z" fill="white"/>
<path d="M24.4304 28.793H20.9404V30.538H24.4304V28.793Z" fill="white"/>
<path d="M15.7058 32.2827H12.2158V34.0277H15.7058V32.2827Z" fill="white"/>
<path d="M20.0681 32.2827H16.5781V34.0277H20.0681V32.2827Z" fill="white"/>
<path d="M24.4304 32.2827H20.9404V34.0277H24.4304V32.2827Z" fill="white"/>
</svg>

<svg width="37" height="55" viewBox="0 0 37 55" fill="none" xmlns="http://www.w3.org/2000/svg"><path d="M28.793 24.43h-1.745V6.108A6.115 6.115 0 0020.94 0h-5.235a6.115 6.115 0 00-6.107 6.108V24.43H7.853C3.523 24.43 0 27.953 0 32.283v17.45c0 .962.783 1.745 1.745 1.745v2.617h6.98v-2.617H27.92v2.617h6.98v-2.617c.962 0 1.745-.783 1.745-1.745v-17.45c0-4.33-3.522-7.853-7.852-7.853zM11.343 6.108a4.368 4.368 0 014.362-4.363h5.235a4.367 4.367 0 014.363 4.363V38.39c0 .48-.391.873-.873.873H12.215a.873.873 0 01-.873-.873V6.108zm-3.49 20.067h1.745V38.39c0 .307.062.599.16.873h-3.65v1.745h24.43v-1.745h-3.65a2.61 2.61 0 00.16-.873V26.175h1.745a6.115 6.115 0 016.107 6.108v13.96H1.745v-13.96a6.115 6.115 0 016.108-6.108zM6.98 52.35H3.49v-.872h3.49v.872zm26.175 0h-3.49v-.872h3.49v.872zm-5.235-2.617H1.745v-1.745H34.9v1.745h-6.98z" fill="#fff"/><path d="M24.43 6.98H12.217v8.725H24.43V6.98zm-1.744 6.98H13.96V8.725h8.725v5.235zm-.874-10.47h-1.745v1.745h1.745V3.49zm-3.489 0h-3.49v1.745h3.49V3.49zM13.96 19.195h1.746v.873h1.745V17.45h-5.235v2.618h1.745v-.873zm8.725-.872H20.94v-.873h-1.745v2.618h5.235V17.45h-1.745v.873zm-2.617 17.45h-3.49v1.745h3.49v-1.745zm-4.362-13.96h-3.49v1.745h3.49v-1.745zm4.362 0h-3.49v1.745h3.49v-1.745zm4.362 0h-3.49v1.745h3.49v-1.745zm-8.724 3.49h-3.49v1.745h3.49v-1.745zm4.362 0h-3.49v1.745h3.49v-1.745zm4.362 0h-3.49v1.745h3.49v-1.745zm-8.724 3.49h-3.49v1.745h3.49v-1.745zm4.362 0h-3.49v1.745h3.49v-1.745zm4.362 0h-3.49v1.745h3.49v-1.745zm-8.724 3.49h-3.49v1.745h3.49v-1.745zm4.362 0h-3.49v1.745h3.49v-1.745zm4.362 0h-3.49v1.745h3.49v-1.745z" fill="#fff"/></svg>
